actions/22x22-dark/games-highscores.svg

<svg xmlns="http://www.w3.org/2000/svg" viewBox="0 0 22 22">
 <defs id="defs3051">
   <style type="text/css" id="current-color-scheme">
     .ColorScheme-Text {
       color:#f2f2f2;
     }
     </style>
 </defs>
   <path
      style="fill:currentColor;fill-opacity:1;stroke:none"
      d="m7.8554688 3c-.2756445 0-.5000001.2243971-.5.5v1.109375c-.3306489-.0876334-.6634797-.1131101-.9824219-.0683594-.6483042.0909129-1.1958374.4706613-1.5410157 1.0703125-.4220598.7332807-.3708927 1.6833762.1425782 2.6738281.4428992.8543733 1.1966885 1.6804001 2.1210937 2.3261718.1968949.137573.2191074.285094.203125.384766-.0180995.112914-.0919357.204276-.1855469.232422-.1406866.042343-.4088383-.041557-.7402343-.402344-.2388642-.260036-.6422666-.276015-.9023438-.03711-.2600357.238906-.2779682.64235-.0390625.902344.6145958.669019 1.2024299.824219 1.6132813.824219.1875544 0 .3377034-.032403.4375-.0625.2132923-.064137.4072505-.176431.5703125-.322266.4655651.63996 1.1339929 1.124492 1.9101562 1.355469v1.835938h-1.5527344c-.7324089 0-1.3281249.595674-1.328125 1.328125v1.726562c0 .343891.2791556.623047.6230469.623047h6.5898439c.343891 0 .623047-.279156.623047-.623047v-1.726562c0-.732451-.595716-1.328125-1.328125-1.328125h-1.552735v-1.835938c.776081-.230977 1.44455-.715509 1.910157-1.355469.163103.145876.356978.258129.570312.322266.099797.030014.249904.0625.4375.0625.410852-.000042.998727-.155283 1.613281-.824219.238906-.260118.220974-.663438-.039062-.902344-.260036-.238905-.663438-.222926-.902344.03711-.331437.360745-.599382.444562-.740234.402344-.093653-.028146-.167448-.119508-.185547-.232422-.015983-.099631.00623-.247234.203125-.384766.924405-.6458133 1.678194-1.4717569 2.121094-2.3261718.513429-.9904519.564638-1.9405889.142578-2.6738281-.345137-.5996512-.892753-.9793581-1.541016-1.0703125-.318901-.0447092-.65169-.0193155-.982422.0683594v-1.109375c0-.2756445-.224438-.5-.5-.5zm-1.3046876 2.8066406c.2428079-.0339574.5262617.0277348.8046876.1640625v3.2285157c-.5361368-.4553116-.9770083-.9829611-1.2460938-1.5019532-.1772593-.3418572-.4339823-.985063-.1679688-1.4472656.1504006-.2612395.3493809-.4069112.609375-.4433594zm8.8984378 0c .260035.0364482.459057.1821199.609375.4433594.266055.4622026.009249 1.1054084-.167969 1.4472656-.269002.5189921-.709957 1.0466001-1.246094 1.5019532v-3.2285157c.278385-.1364108.561921-.1982274.804688-.1640625z"
      class="ColorScheme-Text" />
</svg>

<svg xmlns="http://www.w3.org/2000/svg" viewBox="0 0 22 22">
  <defs id="defs3051">
    <style type="text/css" id="current-color-scheme">
      .ColorScheme-Text {
        color:#f2f2f2
      }
      </style>
  </defs>
 <path 
     style="fill:currentColor;fill-opacity:1;stroke:none"      
	 class="ColorScheme-Text"
        d="M 7.8554688 3 C 7.5798243 3 7.3554687 3.2243971 7.3554688 3.5 L 7.3554688 4.609375 C 7.0248199 4.5217416 6.6919891 4.4962649 6.3730469 4.5410156 C 5.7247427 4.6319285 5.1772095 5.0116769 4.8320312 5.6113281 C 4.4099714 6.3446088 4.4611385 7.2947043 4.9746094 8.2851562 C 5.4175086 9.1395295 6.1712979 9.9655563 7.0957031 10.611328 C 7.292598 10.748901 7.3148105 10.896422 7.2988281 10.996094 C 7.2807286 11.109008 7.2068924 11.20037 7.1132812 11.228516 C 6.9725946 11.270859 6.7044429 11.186959 6.3730469 10.826172 C 6.1341827 10.566136 5.7307803 10.550157 5.4707031 10.789062 C 5.2106674 11.027968 5.1927349 11.431412 5.4316406 11.691406 C 6.0462364 12.360425 6.6340705 12.515625 7.0449219 12.515625 C 7.2324763 12.515625 7.3826253 12.483222 7.4824219 12.453125 C 7.6957142 12.388988 7.8896724 12.276694 8.0527344 12.130859 C 8.5182995 12.770819 9.1867273 13.255351 9.9628906 13.486328 L 9.9628906 15.322266 L 8.4101562 15.322266 C 7.6777473 15.322266 7.0820313 15.91794 7.0820312 16.650391 L 7.0820312 18.376953 C 7.0820312 18.720844 7.3611868 19 7.7050781 19 L 14.294922 19 C 14.638813 19 14.917969 18.720844 14.917969 18.376953 L 14.917969 16.650391 C 14.917969 15.91794 14.322253 15.322266 13.589844 15.322266 L 12.037109 15.322266 L 12.037109 13.486328 C 12.81319 13.255351 13.481659 12.770819 13.947266 12.130859 C 14.110369 12.276735 14.304244 12.388988 14.517578 12.453125 C 14.617375 12.483139 14.767482 12.515625 14.955078 12.515625 C 15.36593 12.515583 15.953805 12.360342 16.568359 11.691406 C 16.807265 11.431288 16.789333 11.027968 16.529297 10.789062 C 16.269261 10.550157 15.865859 10.566136 15.626953 10.826172 C 15.295516 11.186917 15.027571 11.270734 14.886719 11.228516 C 14.793066 11.20037 14.719271 11.109008 14.701172 10.996094 C 14.685189 10.896463 14.707402 10.74886 14.904297 10.611328 C 15.828702 9.9655147 16.582491 9.1395711 17.025391 8.2851562 C 17.53882 7.2947043 17.590029 6.3445673 17.167969 5.6113281 C 16.822832 5.0116769 16.275216 4.63197 15.626953 4.5410156 C 15.308052 4.4963064 14.975263 4.5217001 14.644531 4.609375 L 14.644531 3.5 C 14.644531 3.2243555 14.420093 3 14.144531 3 L 7.8554688 3 z M 6.5507812 5.8066406 C 6.7935891 5.7726832 7.0770429 5.8343754 7.3554688 5.9707031 L 7.3554688 9.1992188 C 6.819332 8.7439072 6.3784605 8.2162577 6.109375 7.6972656 C 5.9321157 7.3554084 5.6753927 6.7122026 5.9414062 6.25 C 6.0918068 5.9887605 6.2907871 5.8430888 6.5507812 5.8066406 z M 15.449219 5.8066406 C 15.709254 5.8430888 15.908276 5.9887605 16.058594 6.25 C 16.324649 6.7122026 16.067843 7.3554084 15.890625 7.6972656 C 15.621623 8.2162577 15.180668 8.7438657 14.644531 9.1992188 L 14.644531 5.9707031 C 14.922916 5.8342923 15.206452 5.7724757 15.449219 5.8066406 z "
     />
</svg>
